wp-content/themes/hello-elementor/assets/images/elementor-notice-icon.svg

<svg width="23" height="24" viewBox="0 0 23 24" fill="none" xmlns="http://www.w3.org/2000/svg">
<path d="M11.5 0.449999C9.41467 0.449999 7.48267 0.971332 5.704 2.014C3.97133 3.04133 2.59133 4.42133 1.564 6.154C0.521333 7.93267 0 9.86467 0 11.95C0 14.0353 0.521333 15.9673 1.564 17.746C2.59133 19.4787 3.97133 20.8587 5.704 21.886C7.48267 22.9287 9.41467 23.45 11.5 23.45C13.5853 23.45 15.5173 22.9287 17.296 21.886C19.0287 20.8587 20.4087 19.4787 21.436 17.746C22.4787 15.9673 23 14.0353 23 11.95C23 9.86467 22.4787 7.93267 21.436 6.154C20.4087 4.42133 19.0287 3.04133 17.296 2.014C15.5173 0.971332 13.5853 0.449999 11.5 0.449999ZM8.625 16.734H6.716V7.166H8.625V16.734ZM16.284 16.734H10.534V14.825H16.284V16.734ZM16.284 12.916H10.534V10.984H16.284V12.916ZM16.284 9.075H10.534V7.166H16.284V9.075Z" fill="#93003F"/>
</svg>

<svg xmlns="http://www.w3.org/2000/svg" width="23" height="24" fill="none" xmlns:v="https://vecta.io/nano"><path d="M11.5.45a11.26 11.26 0 0 0-5.796 1.564 11.64 11.64 0 0 0-4.14 4.14A11.26 11.26 0 0 0 0 11.95a11.26 11.26 0 0 0 1.564 5.796 11.64 11.64 0 0 0 4.14 4.14c1.779 1.043 3.711 1.564 5.796 1.564s4.017-.521 5.796-1.564a11.64 11.64 0 0 0 4.14-4.14C22.479 15.967 23 14.035 23 11.95s-.521-4.017-1.564-5.796a11.64 11.64 0 0 0-4.14-4.14A11.26 11.26 0 0 0 11.5.45zM8.625 16.734H6.716V7.166h1.909v9.568zm7.659 0h-5.75v-1.909h5.75v1.909zm0-3.818h-5.75v-1.932h5.75v1.932zm0-3.841h-5.75V7.166h5.75v1.909z" fill="#93003f"/></svg>
